!!!OTL: Drei Soldaten (2-29) S. 91
!!!id: P0902
**kern
*clefG2
*k[f#c#]
*D:
{4d
=1
4.d
8e
4f#
8g
8g
=2
4.a
8b
4a}
=3
{4dd
=4
8cc#
8b
4a
8b
8cc#
4b
=5
2a}
4r
=6
{4a
=7
4dd
4a
8b
8cc#
4b
=8
4.a
8g
4f#}
=9
{4b
=10
4b
4a
8a
8f#
8a
8f#
=11
4f#
4d
4e}
=12
{8a
8b
=13
4a
8e
8g
4f#
8.e
16d
=14
2d}
4r
==
*-
!!!minrhy: 16
!!!meters: 4/4 ]  ZZ[5
!!!cut: Drei Soldaten (2-29) S. 91
!!!reg: Lothringen
!!!trd: PINCK, Louis: Verklingende Weisen, Bd 2, Metz 1928
!!!rhy1: X__  X__.X_X__X_X_  X__.X_X__   (x2)
!!!rhy2: X__  X_X_X__X_X_X__  X___0_
!!!key: P0902  16  D 4/4 ]  ZZ[5
!!!mod: HEPTATONIK IONISCH]  AMBITUS[8
!!!kad: 55321
!!!akz: 1355_765_+1653_6532_531_
!!!fot: 'a__b__c__d__e__
!!!for: 'a__b__c__d__e__
!!!fok: '/__\__^d_\__\__
!! PHRAS[AUFTAKTIG]
!!!fkt: Liebe, Gnade
!! LOTH VKL
!! PR[7] 2K[7] 2G[29] 3K[0] 3G[2] 4A[11] 4Ü[0] 5A[0] 6K[0] 6G[0]
!! 7K[0] 7G[0] 8A[0] MEHR[0] SI[49] ABS[45] SR[36] SP[13]
!! ST[16] 2k[9] 2g[20] 3k[2] 3g[9] 4d[2] 4ü[0] 5d[2] 6k[0] 6g[0]
!! 7k[0] 7g[0] 8d[0] mehr[0] si[44] dm[+5] sr[29] sp[16]
!! 1F[2] 2F[30] 3F[33] 4F[11] LF[0] 2P[2] 3P[22] 4P[0] TRI[0] DF[6] AB[46]
!! TF[0] U3K[0] U3[0] U4[0] U4Ü[0] U5[4] U6K[0] U6[0] U7K[0] U7[2]
!! N1[20] N2K[0] N2[22] N3K[0] N3[24] N4[11] N4Ü[0] N5[15] N6K[0] N6[2]
!!!n7k: 0] N7[0] O1[0] O2K[0] O2[0] O3K[0] O3[0] HÖ[0
